X: 102
T: Arazbâr Seyir
C: Şefik Gürmeriç
O: Turkey
F: http://compmusic.upf.edu/node/140
N: arazbar--seyir--duyek--1--sefik_gurmeric
N: makam= arazbar
N: form= seyir
N: usul= duyek = 8/4
M: 8/4
L: 1/16
K: C _2/4B _2/4e  
Q: 1/4=120
%%MIDI tuningsystem comma53
f4 g4 g4 a4  | g4 f2 e2 d6 c2  | z2 f2 e2 d2 e4 f4  | \
w:   |   |   | 
g2 fe _b2 ag g8  | 
w:   | 
z2 g4 _a2 gf fe f4  | g2 _7/8a2 c'2 _1/4b2 a2 g2 f2 e2  | \
w:   |   | 
z2 _b4 ba a2 g2 g2 f2  | 
w:   | 
f3e fe ed d8  | c4 g4 g3^f _7/8ed e2  | \
w:   |   | 
^f2 g2 a2 _b2 ag gf g4  | 
w:   | 
z2 c'2 _b2 a2 a2 g2 g2 ^f2  | ^f2 _7/8e2 e2 d2 gf ed c=B c2  | \
w:   |   | 
z2 f4 f=e e2 d2 d2 c2  | 
w:   | 
B3A B2 c2 B3A G4  | A4 f2 =e2 e2 d2 d2 c2  | \
w:   |   | 
c3B cB BA A8  | 
w:   | 
|


